!!!COM: Beethoven
!!!OTL: 7 Variations on a Quartet by Winter 
!!!Variation: Variation 5d
**harm	**function	**kern	**kern
*M2/4	*M2/4	*staff2	*staff1
*F:	*F:	*clefG2	*clefG2
*	*tb16	*k[b-]	*k[b-]
*	*	*M2/4	*M2/4
*	*	*F:	*F:
2V	2D	8c'L	(4e 4cc
.	.	8.C	.
.	.	.	4ee 4gg
.	.	16C'L	.
.	.	16E'	.
.	.	16F#'JJ	.
=	=	=279	=279
4C64/V	4D	8G'L	4cc 4ee
.	.	8.GG	.
4V7/V	4D	.	4f) 4dd
.	.	16GG'L	.
.	.	16AA'	.
.	.	16BB'JJ	.
=	=	=280	=280
2V	2D	8C'L	(4e 4cc
.	.	8.CC	.
.	.	.	4ee 4gg
.	.	16CC'L	.
.	.	16EE'	.
.	.	16FF#'JJ	.
=	=	=281	=281
4C64/V	4D	8GG'L	4cc 4ee
.	.	8.GGG	.
4V7/V	4D	.	4f) 4dd
.	.	16GGG'L	.
.	.	16AAA'	.
.	.	16BBB'JJ	.
=	=	=282	=282
2V	2D	4CC	4e 4cc
.	.	(8cL	4r
.	.	16AJk)	.
.	.	16r	.
=	=	=283	=283
2V/ii	2D	(8F#L	4r
.	.	16DJk)	.
.	.	16r	.
.	.	(8f#L	(8aaL
.	.	16dJk)	16dddJk)
.	.	16r	16r
=	=	=284	=284
2ii	2P	(8gL	(8bb-L
.	.	16b-Jk)	16ggJk)
.	.	16r	16r
.	.	(8B-L	4r
.	.	16GJk)	.
.	.	16r	.
=	=	=285	=285
2V	2D	(8EL	4r
.	.	16CJk)	.
.	.	16r	.
.	.	(8eL	(8ggL
.	.	16cJk)	16cccJk)
.	.	16r	16r
=	=	=286	=286
4I	4T	(8fL	(8aaL
.	.	16aJk)	16ffJk)
.	.	16r	16r
*-	*-	*-	*-
